build/img/percent.svg

<svg width="65" height="64" viewBox="0 0 65 64" fill="none" xmlns="http://www.w3.org/2000/svg">
<rect x="4.5" y="4" width="56" height="56" rx="28" stroke="url(#paint0_linear_1_800)" stroke-width="8"/>
<path d="M42.0299 30.87L40.5099 29.35C40.2499 29.09 40.0399 28.58 40.0399 28.22V26.06C40.0399 25.18 39.3199 24.46 38.4399 24.46H36.2899C35.9299 24.46 35.4199 24.25 35.1599 23.99L33.6399 22.47C33.0199 21.85 31.9999 21.85 31.3799 22.47L29.8399 23.99C29.5899 24.25 29.0799 24.46 28.7099 24.46H26.5599C25.6799 24.46 24.9599 25.18 24.9599 26.06V28.21C24.9599 28.57 24.7499 29.08 24.4899 29.34L22.9699 30.86C22.3499 31.48 22.3499 32.5 22.9699 33.12L24.4899 34.64C24.7499 34.9 24.9599 35.41 24.9599 35.77V37.92C24.9599 38.8 25.6799 39.52 26.5599 39.52H28.7099C29.0699 39.52 29.5799 39.73 29.8399 39.99L31.3599 41.51C31.9799 42.13 32.9999 42.13 33.6199 41.51L35.1399 39.99C35.3999 39.73 35.9099 39.52 36.2699 39.52H38.4199C39.2999 39.52 40.0199 38.8 40.0199 37.92V35.77C40.0199 35.41 40.2299 34.9 40.4899 34.64L42.0099 33.12C42.6599 32.51 42.6599 31.49 42.0299 30.87ZM28.4999 29C28.4999 28.45 28.9499 28 29.4999 28C30.0499 28 30.4999 28.45 30.4999 29C30.4999 29.55 30.0599 30 29.4999 30C28.9499 30 28.4999 29.55 28.4999 29ZM30.0299 35.53C29.8799 35.68 29.6899 35.75 29.4999 35.75C29.3099 35.75 29.1199 35.68 28.9699 35.53C28.6799 35.24 28.6799 34.76 28.9699 34.47L34.9699 28.47C35.2599 28.18 35.7399 28.18 36.0299 28.47C36.3199 28.76 36.3199 29.24 36.0299 29.53L30.0299 35.53ZM35.4999 36C34.9399 36 34.4899 35.55 34.4899 35C34.4899 34.45 34.9399 34 35.4899 34C36.0399 34 36.4899 34.45 36.4899 35C36.4899 35.55 36.0499 36 35.4999 36Z" fill="#0E0F11"/>
<defs>
<linearGradient id="paint0_linear_1_800" x1="32.5" y1="0" x2="32.5" y2="64" gradientUnits="userSpaceOnUse">
<stop offset="0.355133" stop-color="#F3F7FB"/>
<stop offset="1" stop-color="#F3F7FB" stop-opacity="0.1"/>
</linearGradient>
</defs>
</svg>

<svg width="65" height="64" fill="none" xmlns="http://www.w3.org/2000/svg"><rect x="4.5" y="4" width="56" height="56" rx="28" stroke="url(#paint0_linear_1_800)" stroke-width="8"/><path d="M42.03 30.87l-1.52-1.52c-.26-.26-.47-.77-.47-1.13v-2.16c0-.88-.72-1.6-1.6-1.6h-2.15c-.36 0-.87-.21-1.13-.47l-1.52-1.52c-.62-.62-1.64-.62-2.26 0l-1.54 1.52c-.25.26-.76.47-1.13.47h-2.15c-.88 0-1.6.72-1.6 1.6v2.15c0 .36-.21.87-.47 1.13l-1.52 1.52c-.62.62-.62 1.64 0 2.26l1.52 1.52c.26.26.47.77.47 1.13v2.15c0 .88.72 1.6 1.6 1.6h2.15c.36 0 .87.21 1.13.47l1.52 1.52c.62.62 1.64.62 2.26 0l1.52-1.52c.26-.26.77-.47 1.13-.47h2.15c.88 0 1.6-.72 1.6-1.6v-2.15c0-.36.21-.87.47-1.13l1.52-1.52c.65-.61.65-1.63.02-2.25zM28.5 29c0-.55.45-1 1-1s1 .45 1 1-.44 1-1 1c-.55 0-1-.45-1-1zm1.53 6.53c-.15.15-.34.22-.53.22s-.38-.07-.53-.22a.754.754 0 010-1.06l6-6c.29-.29.77-.29 1.06 0 .29.29.29.77 0 1.06l-6 6zm5.47.47c-.56 0-1.01-.45-1.01-1s.45-1 1-1 1 .45 1 1-.44 1-.99 1z" fill="#0E0F11"/><defs><linearGradient id="paint0_linear_1_800" x1="32.5" y1="0" x2="32.5" y2="64" gradientUnits="userSpaceOnUse"><stop offset=".355" stop-color="#F3F7FB"/><stop offset="1" stop-color="#F3F7FB" stop-opacity=".1"/></linearGradient></defs></svg>
